X: 2795
T: Banshee, The
R: reel
M: 4/4
K: Gmajor
|:G2 GD EDEG|AGAB d2 Bd|eged BAGA|BAGE E2 DE|
G2 GD EDEG|AGAB d2 Bd|eged BAGA|1 BAGE E2 DE:|2 BAGE E2 D d||
|:eaag efge|eBBA B2 Bd|eB B2 gBfB|eBBA B2 Bd|
ea a2 efgf|eBBA B2 Bd|eged BAGA|1 BAGE E2 D d:|2 BAGE E2 DE||

